assets/svg/icon-large-redpoint-globe-blue.svg

<?xml version="1.0" encoding="UTF-8" standalone="no"?>
<svg width="49px" height="64px" viewBox="0 0 49 64" version="1.1" xmlns="http://www.w3.org/2000/svg" xmlns:xlink="http://www.w3.org/1999/xlink">
    <!-- Generator: Sketch 3.8.3 (29802) - http://www.bohemiancoding.com/sketch -->
    <title>blue/icon-large-redpoint-globe-blue</title>
    <desc>Created with Sketch.</desc>
    <defs></defs>
    <g id="blue,-base" stroke="none" stroke-width="1" fill="none" fill-rule="evenodd">
        <g id="icons,-large-detailed-(blue)" transform="translate(-284.000000, -1097.000000)" fill="#1055FF">
            <g id="blue/icon-large-redpoint-globe-blue" transform="translate(284.000000, 1097.000000)">
                <g id="Fill-329">
                    <g id="PaaS">
                        <g id="redpoint_v2.3_2015-11-13_Kris">
                            <g id="Features">
                                <g id="2">
                                    <path d="M12.2899197,47.2788736 C10.9355903,47.1113769 6.86560637,43.2064968 5.66920228,41.8665242 C2.81599997,44.8 1.34315743,48.3461268 3.85790743,50.1335242 C6.11905021,52.4329213 11.3615101,49.4324009 12.2899197,47.2788736 L12.2899197,47.2788736 Z M41.6663649,18.5392504 C35.8709834,25.9569559 23.3786501,38.5330071 17.5736973,45.9267845 C24.7760499,48.0563837 35.1125548,46.3073324 39.1037588,41.6652846 C44.7999995,36.6080005 47.0475773,27.7057024 41.6663649,18.5392504 L41.6663649,18.5392504 Z M15.2835056,44.5914148 C22.0503672,36.4319388 33.5307256,24.2747812 39.9195236,15.7324559 C38.4,8.96 20.48,2.56 11.2711319,13.1265964 C1.792,22.016 7.07617349,41.4329078 15.2835056,44.5914148 L15.2835056,44.5914148 Z M36.7757089,7.45794237 C39.467618,8.65434647 40.4032061,10.1378875 41.8604262,11.9564218 C43.2817544,9.06112384 45.3204268,5.37619924 44.1048804,4.03622664 C42.8941194,2.67232596 39.467618,5.06513416 36.7757089,7.45794237 L36.7757089,7.45794237 L36.7757089,7.45794237 Z M43.997204,14.9713601 C49.92,25.6 49.8396905,34.6537969 44.3041183,42.0409408 C40.4918917,47.1283039 33.5413171,50.848139 25.6,50.7700721 L25.6,55.9123082 C34.9811026,56.678007 40.3649211,58.0179794 40.515668,60.2672192 C40.664022,62.4925309 33.4020017,64 24.8788188,64 C16.3532432,64 10.1365752,63.4017979 10.0073635,61.1525583 C9.87575908,58.9033185 17.7575779,56.4147981 23.04,55.6251712 C23.0193631,53.2084349 23.04,53.76 23.04,50.497353 C21.6099382,50.4255685 15.577821,49.714935 14.7092316,48.2792502 C11.3521218,51.724894 5.68674949,54.9140193 1.69468692,51.1817569 C-1.024,48.64 1.63253486,42.0100928 4.36990743,39.0908667 C1.26010313e-13,28.16 0.736932813,18.4018277 8.43246641,10.0969138 C16.128,1.79200001 32,2.56 34.2345464,5.78297661 C37.3093051,3.31838418 41.3507581,-1.75436919 45.7224187,0.614510925 C50.0869007,2.98339103 47.0576056,11.7171409 43.997204,14.9713601 L43.997204,14.9713601 Z" id="Fill-329"></path>
                                </g>
                            </g>
                        </g>
                    </g>
                </g>
            </g>
        </g>
    </g>
</svg>

<svg width="49" height="64" viewBox="0 0 49 64" xmlns="http://www.w3.org/2000/svg"><title>blue/icon-large-redpoint-globe-blue</title><path d="M12.29 47.279c-1.354-.168-5.424-4.073-6.62-5.412-2.854 2.933-4.327 6.48-1.812 8.267 2.261 2.299 7.504-.702 8.432-2.855zm29.376-28.74c-5.795 7.418-18.287 19.994-24.092 27.388 7.202 2.13 17.539.38 21.53-4.262 5.696-5.057 7.944-13.96 2.562-23.126zM15.284 44.591c6.766-8.16 18.247-20.316 24.636-28.859C38.4 8.96 20.48 2.56 11.27 13.127c-9.479 8.889-4.195 28.306 4.013 31.464zM36.776 7.458c2.692 1.196 3.627 2.68 5.084 4.498 1.422-2.895 3.46-6.58 2.245-7.92-1.21-1.364-4.637 1.03-7.33 3.422zm7.221 7.513c5.923 10.629 5.843 19.683.307 27.07-3.812 5.087-10.763 8.807-18.704 8.73v5.141c9.381.766 14.765 2.106 14.916 4.355C40.664 62.493 33.402 64 24.879 64c-8.526 0-14.742-.598-14.872-2.847-.131-2.25 7.75-4.738 13.033-5.528-.02-2.417 0-1.865 0-5.128-1.43-.071-7.462-.782-8.33-2.218-3.358 3.446-9.023 6.635-13.015 2.903-2.719-2.542-.062-9.172 2.675-12.091C0 28.16.737 18.4 8.432 10.097 16.128 1.792 32 2.56 34.235 5.783 37.309 3.318 41.35-1.754 45.722.615c4.365 2.368 1.336 11.102-1.725 14.356z" fill="#1055FF" fill-rule="evenodd"/></svg>
